src/svg/viacoin.svg

<svg height="1000" width="857.143" xmlns="http://www.w3.org/2000/svg"><path d="M857.088 .064l-107.136 249.984h107.136v107.136h-152.892l-30.69 71.424h183.582v107.136h-229.338l-199.206 464.256 -199.206 -464.256h-229.338v-107.136h183.582l-30.69 -71.424h-152.892v-107.136h107.136l-107.136 -249.984h142.848l180.234 428.544h210.924l180.234 -428.544h142.848zm-428.544 678.528l60.264 -142.848h-120.528z"/></svg>

<svg height="1000" width="857.1" xmlns="http://www.w3.org/2000/svg"><path d="M857.1 0L750 250h107.1v107.1H704.2l-30.7 71.5h183.6v107.1H627.8L428.6 1000 229.4 535.7H0V428.6h183.6l-30.7 -71.5H0V250h107.1L0 0h142.9l180.2 428.6H534L714.3 0h142.8zM428.6 678.6l60.2 -142.9H368.3z"/></svg>
